X: 333
T: Moll in the Wadd
%R: jig
Z: 2014 John Chambers <jc:trillian.mit.edu>
B: Preston "Twenty four Country Dances for the Year 1798" p.147 #1
F: http://www.vwml.org/browse/browse-collections-dance-tune-books/browse-prestons1798# 2014-8-10
N: The y.r in the 4th dance strain is probably "your", as in the 2nd strain.
M: 6/8
L: 1/8
K: Dmix
d |\
BAB G2F | E2F G2A | BAB c2B | AFD D2d |\
BAB G2F | E2F G2A | BAB c2B | AFD D2 :|
|: c |\
BAB d2d | BAB d2d | BAB de=f | ecA A2c |\
BAB d2d | BAB def | gfe dcB | AFD D2 :|
% - - - - - - - - - - - - - - - - - - - - - - - - -
%%begintext align
%% Lead down 2 Cu foot it .| Lead up to the top and
%% cast off :|: Turn your Partner with the Right
%% hand, turn Corners with the Left hand :| Turn y.r
%% Par.tr again and Turn contrary Corners :|:
%%endtext
% - - - - - - - - - - - - - - - - - - - - - - - - -

%%sep 1 1 500
%%sep 1 1 500
